icons/codefund-icon.svg

<?xml version="1.0" encoding="UTF-8"?>
<svg width="256px" height="248px" viewBox="0 0 256 248" version="1.1" xmlns="http://www.w3.org/2000/svg" xmlns:xlink="http://www.w3.org/1999/xlink" preserveAspectRatio="xMidYMid">
    <g>
				<path d="M221.138585,124.670461 C215.204322,121.125197 210.52178,115.840956 207.734996,109.544531 C205.087786,103.420943 203.769768,95.1840498 203.780937,84.8338532 L203.780937,47.8427169 C203.881498,43.9621483 203.407306,40.087967 202.37356,36.3443474 C201.586762,33.5615881 200.038208,31.0501157 197.900112,29.0892258 C195.535782,27.1669471 192.715216,25.8779942 189.707168,25.3451836 C189.070498,25.195422 188.417073,25.0623005 187.730139,24.9458192 C183.026718,24.0914492 178.253449,23.6736432 173.472071,23.6962201 L153.031597,23.6962201 C157.819092,23.6780987 162.598023,24.1014802 167.30642,24.9624594 C167.993354,25.0789406 168.646778,25.2120622 169.283449,25.3618238 C172.287634,25.8908953 175.103693,27.1804255 177.459638,29.105866 C179.608004,31.0612924 181.163254,33.5742147 181.949841,36.3609876 C182.975357,40.1062112 183.449401,43.9791895 183.357218,47.859357 L183.357218,85.2664981 C183.357218,95.4502927 183.541517,104.535835 186.188726,110.742625 C188.744286,116.691995 193.170288,121.659901 198.804855,124.903424 C193.160367,128.2183 188.737639,133.246698 186.188726,139.247266 C183.541517,145.454055 183.357218,154.356555 183.357218,164.523711 L183.357218,201.914211 C183.449138,205.799844 182.975112,209.678275 181.949841,213.429221 C181.159596,216.209642 179.604678,218.716265 177.459638,220.667702 C175.101049,222.592146 172.286762,223.886591 169.283449,224.428385 L167.30642,224.827749 C162.596904,225.680554 157.818737,226.103867 153.031597,226.092848 L173.472071,226.092848 C178.25921,226.103867 183.037378,225.680554 187.746893,224.827749 L189.723923,224.428385 C192.731121,223.882957 195.549952,222.589073 197.916867,220.667702 C200.050985,218.710269 201.599087,216.205288 202.390315,213.429221 C203.424023,209.679917 203.898199,205.800255 203.797691,201.914211 L203.797691,164.923075 C203.797691,154.589519 205.104541,146.335985 207.751751,140.229037 C210.544984,133.93238 215.225568,128.644538 221.15534,125.086466 L220.837004,124.886784 L221.138585,124.670461 Z" fill="#0FCE7C"></path>
				<path d="M238.328729,104.853059 C234.601442,99.8522467 232.652668,93.7558364 232.790468,87.527549 L232.790468,49.7838745 C232.885969,42.5782355 232.107414,35.3875005 230.471737,28.3680804 C229.147101,22.5183933 226.305579,17.1175946 222.231071,12.7052868 C217.672939,8.15642383 211.994861,4.88223917 205.766421,3.21117312 C201.596129,2.00415071 197.324999,1.17496726 193.005066,0.733724915 C188.262542,0.226472284 183.495405,-0.0177692488 178.725694,0.00100509968 L0,0.00100509968 C0,0.00100509968 6.3222922,63.0191013 42.8714799,80.0952043 C46.0242852,98.7010072 54.5485365,125.520631 77.3855233,136.195273 C80.7218252,156.314148 90.4805084,182.568449 117.78814,190.150438 C117.761581,190.476903 117.761581,190.804976 117.78814,191.131441 C117.78814,191.131441 121.124442,247.813461 179.509725,247.813461 C184.514178,247.813461 189.034867,247.630563 193.055111,247.314647 C197.104065,247.047175 201.116271,246.378795 205.032435,245.319386 C211.398214,243.737697 217.239983,240.528313 221.980849,236.008172 C226.173122,231.695899 229.108387,226.327318 230.471737,220.478395 C232.127488,213.394731 232.906199,206.135535 232.790468,198.863075 L232.790468,160.919875 C232.676547,154.776941 234.625915,148.772311 238.328729,143.860399 C242.020902,138.972011 247.814947,136.533359 255.710862,136.544444 L255.710862,112.169014 C247.803826,112.169014 242.009781,109.730363 238.328729,104.853059 Z M207.684795,139.354435 C205.026874,145.517573 203.697914,153.648259 203.697914,163.746493 L203.697914,200.692063 C203.697914,209.748329 201.723936,215.844957 197.775979,218.98195 C196.337794,220.091219 194.725841,220.956366 193.005066,221.542534 C189.802521,222.626006 186.471108,223.285646 183.09625,223.50454 C179.759948,223.50454 149.199423,227.428552 144.211651,192.278715 L172.570217,192.278715 C171.435875,169.665766 153.3698,168.35222 151.067752,168.269084 L140.65849,168.269084 C118.055044,168.269084 107.912686,151.409133 103.341952,136.178647 L170.618481,136.178647 C170.618481,122.876911 159.975677,111.60369 149.783276,112.169014 L105.644,112.169014 C83.3908668,111.936233 73.3485979,95.2093012 68.8112274,80.0952043 L167.415631,80.0952043 C167.415631,66.7934688 158.257482,56.0855717 144.945638,56.0855717 L69.9956145,56.0855717 C47.3921689,56.0855717 40.4860239,39.225622 35.9319718,23.9944968 L173.120707,23.9944968 C177.937079,23.9757367 182.744998,24.3987466 187.483487,25.2587997 C188.167429,25.3751899 188.834689,25.5082072 189.468587,25.6578518 C190.649928,25.9124921 191.80992,26.2571325 192.938341,26.6887363 C194.678275,27.2854766 196.294866,28.192551 197.709253,29.3657105 C199.855511,31.2926271 201.416035,33.7813325 202.21326,36.5486477 C203.255375,40.2643619 203.733318,44.1146868 203.631189,47.971513 L203.631189,84.7009302 C203.631189,94.9765208 204.960149,103.146004 207.618069,109.209378 C210.475325,115.466261 215.199765,120.692088 221.146773,124.17383 C215.184495,127.715146 210.478694,133.021715 207.684795,139.354435 L207.684795,139.354435 Z" fill="#15003E"></path>
		</g>
</svg>

<svg xmlns="http://www.w3.org/2000/svg" viewBox="0 0 255.711 247.813">
  <path fill="#0fce7c" d="M221.139 124.67a33.353 33.353 0 0 1-13.404-15.125c-2.647-6.124-3.965-14.36-3.954-24.711V47.843c.1-3.88-.374-7.755-1.407-11.499a15.608 15.608 0 0 0-4.474-7.255 17.95 17.95 0 0 0-8.193-3.744c-.637-.15-1.29-.283-1.977-.4a77.726 77.726 0 0 0-14.258-1.249h-20.44a77.725 77.725 0 0 1 14.274 1.266c.687.117 1.34.25 1.977.4 3.005.529 5.82 1.818 8.177 3.744a15.509 15.509 0 0 1 4.49 7.255 39.943 39.943 0 0 1 1.407 11.498v37.407c0 10.184.185 19.27 2.832 25.477a30.02 30.02 0 0 0 12.616 14.16 30.45 30.45 0 0 0-12.616 14.344c-2.647 6.207-2.832 15.11-2.832 25.277v37.39a40.076 40.076 0 0 1-1.407 11.515 15.526 15.526 0 0 1-4.49 7.239 17.983 17.983 0 0 1-8.177 3.76l-1.977.4a79.094 79.094 0 0 1-14.274 1.265h20.44a79.096 79.096 0 0 0 14.275-1.265l1.977-.4a18.134 18.134 0 0 0 8.193-3.76 15.641 15.641 0 0 0 4.473-7.239 39.48 39.48 0 0 0 1.408-11.515v-36.99c0-10.334 1.307-18.588 3.954-24.695a33.52 33.52 0 0 1 13.403-15.143l-.318-.2z"/>
  <path fill="#15003e" d="M238.329 104.853a27.955 27.955 0 0 1-5.539-17.325V49.784a89.159 89.159 0 0 0-2.318-21.416 34.232 34.232 0 0 0-8.24-15.663 36.81 36.81 0 0 0-16.466-9.494 72.34 72.34 0 0 0-12.76-2.477c-4.743-.508-9.51-.752-14.28-.733H0s6.322 63.018 42.871 80.094c3.153 18.606 11.678 45.426 34.515 56.1 3.336 20.12 13.095 46.373 40.402 53.955a6.04 6.04 0 0 0 0 .981s3.336 56.682 61.722 56.682c5.004 0 9.525-.182 13.545-.498a61.355 61.355 0 0 0 11.977-1.996 37.752 37.752 0 0 0 16.949-9.31 33.04 33.04 0 0 0 8.49-15.53 88.76 88.76 0 0 0 2.32-21.616V160.92a27.49 27.49 0 0 1 5.538-17.06c3.692-4.888 9.486-7.327 17.382-7.316V112.17c-7.907 0-13.701-2.439-17.382-7.316zm-30.644 34.501c-2.658 6.164-3.987 14.294-3.987 24.392v36.946c0 9.056-1.974 15.153-5.922 18.29a16.549 16.549 0 0 1-4.77 2.56 38.745 38.745 0 0 1-9.91 1.963c-3.336 0-33.897 3.924-38.884-31.226h28.358c-1.134-22.613-19.2-23.927-21.502-24.01h-10.41c-22.603 0-32.745-16.86-37.316-32.09h67.276c0-13.302-10.642-24.575-20.835-24.01h-44.139c-22.253-.233-32.295-16.96-36.833-32.074h98.605c0-13.302-9.159-24.01-22.47-24.01h-74.95c-22.604 0-29.51-16.86-34.064-32.09h137.189a78.71 78.71 0 0 1 14.362 1.264c.684.116 1.352.25 1.986.399 1.18.254 2.34.6 3.47 1.03a15.194 15.194 0 0 1 4.77 2.678 15.373 15.373 0 0 1 4.504 7.183 38.523 38.523 0 0 1 1.418 11.423V84.7c0 10.276 1.33 18.445 3.987 24.508a33.442 33.442 0 0 0 13.529 14.965 33.29 33.29 0 0 0-13.462 15.18z"/>
</svg>
